package/converter/svg/regular/square-arrow-down-left.svg

<svg xmlns="http://www.w3.org/2000/svg" viewBox="0 0 448 512"><!-- Font Awesome Pro 6.0.0-alpha2 by @fontawesome - https://fontawesome.com License - https://fontawesome.com/license (Commercial License) --><path d="M295.031 151.031L160 286.062V188.719C160 175.469 149.25 164.719 136 164.719S112 175.469 112 188.719V344C112 357.25 122.75 368 136 368H291.281C304.531 368 315.281 357.25 315.281 344S304.531 320 291.281 320H193.938L328.969 184.969C338.344 175.594 338.344 160.406 328.969 151.031S304.406 141.656 295.031 151.031ZM384 32H64C28.654 32 0 60.656 0 96V416C0 451.344 28.654 480 64 480H384C419.346 480 448 451.344 448 416V96C448 60.656 419.346 32 384 32ZM400 416C400 424.82 392.822 432 384 432H64C55.178 432 48 424.82 48 416V96C48 87.18 55.178 80 64 80H384C392.822 80 400 87.18 400 96V416Z"/></svg>

<svg xmlns="http://www.w3.org/2000/svg" viewBox="0 0 448 512"><!--! Font Awesome Pro 6.6.0 by @fontawesome - https://fontawesome.com License - https://fontawesome.com/license (Commercial License) Copyright 2024 Fonticons, Inc. --><path d="M64 432c-8.8 0-16-7.2-16-16L48 96c0-8.8 7.2-16 16-16l320 0c8.8 0 16 7.2 16 16l0 320c0 8.8-7.2 16-16 16L64 432zM0 416c0 35.3 28.7 64 64 64l320 0c35.3 0 64-28.7 64-64l0-320c0-35.3-28.7-64-64-64L64 32C28.7 32 0 60.7 0 96L0 416zm288-48c13.3 0 24-10.7 24-24s-10.7-24-24-24l-94.1 0L329 185c9.4-9.4 9.4-24.6 0-33.9s-24.6-9.4-33.9 0l-135 135L160 184c0-13.3-10.7-24-24-24s-24 10.7-24 24l0 160c0 13.3 10.7 24 24 24l152 0z"/></svg>
